public/assets/images/icons/red/export/refresh.svg

<svg width="16" height="16" xmlns="http://www.w3.org/2000/svg" viewBox="0 0 16 16" shape-rendering="geometricPrecision" fill="#cb1800"><defs><mask id="a"><rect fill="#fff" width="100%" height="100%"/><path d="M13.848-1.1L12.051.695l.286.287A4.455 4.455 0 0 0 9.23 5.236v.987h2.626v-.988c0-.491.191-.954.538-1.302l.03-.03 1.425 1.421 3.212-3.213L13.848-1.1z" fill="#000"/></mask></defs><path d="M13.848-.04l-.736.735.821.821h-.234l-.156.008A3.722 3.722 0 0 0 9.98 5.235v.237h1.126v-.237c0-.691.27-1.343.759-1.833a2.579 2.579 0 0 1 1.833-.759h.3l-.886.887.735.734L16 2.111 13.848-.04z"/><g mask="url(#a)"><path d="M8.41 6.155l6.188.002-.002-6.185h-2.114l-.002 2.695C9.548.404 5.354.555 2.69 3.217c-2.895 2.895-2.832 7.604.086 10.53 2.929 2.918 7.635 2.981 10.533.09a7.314 7.314 0 0 0 2.138-5.191l-2.094.002a5.215 5.215 0 0 1-1.525 3.709c-2.058 2.05-5.443 2.036-7.572-.089-2.125-2.128-2.137-5.515-.087-7.572 1.775-1.772 4.54-1.994 6.635-.654l-2.394.001v2.112z"/></g></svg>

<?xml version="1.0"?><!DOCTYPE svg PUBLIC "-//W3C//DTD SVG 1.1//EN" "http://www.w3.org/Graphics/SVG/1.1/DTD/svg11.dtd"><svg width="16px" height="16px" xmlns="http://www.w3.org/2000/svg" viewBox="0 0 16 16" shape-rendering="geometricPrecision" fill="#cb1800"><defs><mask id="export-path"><rect fill="#fff" width="100%" height="100%"/><path d="M13.848-1.1l-1.797,1.795l0.286,0.287c-1.812,0.575-3.107,2.263-3.107,4.254v0.987h2.626 V5.235c0-0.491,0.191-0.954,0.538-1.302c0.01-0.01,0.021-0.02,0.03-0.03l1.425,1.421l3.212-3.213L13.848-1.1z" fill="#000"/></mask></defs><path id="export" display="inline" d="M13.848-0.04l-0.736,0.735l0.821,0.821h-0.234 l-0.156,0.008c-1.978,0.084-3.563,1.714-3.563,3.711v0.237h1.126V5.235c0-0.691,0.27-1.343,0.759-1.833 c0.49-0.489,1.141-0.759,1.833-0.759h0.237V2.643h0.063L13.112,3.53l0.735,0.734L16,2.111L13.848-0.04z" fill="#cb1800"/><g mask="url(#export-path)"><path d="M8.41,6.155l6.188,0.002l-0.002-6.185l-2.114,0L12.48,2.667 c-2.932-2.263-7.126-2.112-9.79,0.55c-2.895,2.895-2.832,7.604,0.086,10.53c2.929,2.918,7.635,2.981,10.533,0.09 c1.425-1.426,2.141-3.311,2.138-5.191l-2.094,0.002c0,1.355-0.507,2.689-1.525,3.709c-2.058,2.05-5.443,2.036-7.572-0.089 C2.131,10.14,2.119,6.753,4.169,4.696c1.775-1.772,4.54-1.994,6.635-0.654L8.41,4.043V6.155z"/></g></svg>
